X:1114031
T:Canadian Reel
S:Old Grey Goose, $2Old Time Country Song & Dance Band.$0 Cassette (self-produced),
S:recorded in Liberty and Montvile, ME, 1993. They learned it from Gale Huntington
S:of Martha's Vineyard.
H:This is a tune I remember hearing from Bowdoinham dances with the Maine
H:Country Dance Orchestra long ago. They often played it with the Dominion
H:Reel. There's another transcription from a recording Doug Protsik made
H:for the Maine Fiddle Camp website <https://www.mainefiddlecamp.org> in 2020.
N:From NH Country Dance (URL below), along with many New England, Canadian & Swedish
N:tunes, and resources for abc notation and New England traditional music and dance.
%
N: Note #1: To preserve formatting (font, spacing, etc.), use the
N: file header at the URL below; just follow accompanying instructions.
%
N: Note #2: This abc code is optimized for use with abcm2ps, which is used by
N: EasyABC and other abc apps. To use abc2svg for display or printing look to see if there
N: is a file optimized for abc2svg. If not you may need to adjust the spacing in places.
%
Z:abc-transcription Peter Yarensky. I rely heavily on careful listening to the
Z:named sources aided by software to hear details. While not perfect, known
Z:substantial differences from other written sources receive careful attention.
Z:abc-copyright Peter Yarensky. You may reproduce this tune freely but
Z:please include the entire abc file including all the notes.
%%writefields HQSD
F:Tunes Home Page - https://fiddle-tunes.nhcountrydance.com/
F:abc Header & its Usage - https://fiddle-tunes.nhcountrydance.com/header-page/
M:4/4
L:1/8
R:Reel
G:Reels ~ Canadian
N: Tune Tags ~ Reel, New England Repertoire, Canadian
K:Cmaj
|: "G7" g2>f2 |\
"C" e2c2 cdcA | "C" G2E2 E2C2 | "G7" D2d2 d2c2     | "G7" B2c2 d2f2 |
"C" e2c2 c2A2 | "C" G2E2 C2D2 | "C" C2c2 "G7" B2d2 |1 "C" c2z2     :|2 "C" [ce]4 [ce]3 ||
|: d |\
"C" e2c2 g2c2 | "C" a2c2 g2c2 | "C" e2"G7"d2- d2c2 | "G7" d2e2 f2d2 |
"C" e2c2 g2c2 | "C" a2c2 g2c2 | "C" e2c2 "G7" B2d2 |1 "C" c4 [ce]3 :|2 "C" c2z2 ||

